src/assets/icons/phone.svg

<svg width="17" height="16" viewBox="0 0 17 16" fill="none" xmlns="http://www.w3.org/2000/svg">
  <path
    d="M16.0039 14.0981C16.0039 14.3484 15.9205 14.5152 15.7536 14.6821C15.5868 14.8489 14.3523 16 14.0186 16C11.5994 15.7497 9.26361 14.9155 7.17809 13.5808C5.25942 12.4129 3.67442 10.7445 2.42311 8.82581C1.08838 6.74029 0.254169 4.40451 0.00390625 1.98531C0.00390625 1.73504 1.155 0.500525 1.23843 0.333683C1.40527 0.166842 1.65553 0 1.90579 0H4.40842C4.82552 0 5.1592 0.333683 5.24262 0.750787C5.32604 1.585 5.57631 2.50262 5.90999 3.25341C5.99341 3.58709 5.90999 3.92078 5.74315 4.17104L4.65868 5.17209C4.40842 5.42235 4.325 5.83946 4.49184 6.17314C5.74315 8.4255 7.57841 10.2608 9.83077 11.5121C10.1645 11.6789 10.5816 11.6789 10.8318 11.3452L11.9163 10.2608C12.1665 10.0105 12.5002 9.92707 12.8339 10.0939C13.6681 10.4276 14.5023 10.5944 15.3365 10.7613C15.6702 10.8447 16.0039 11.1784 16.0039 11.5955V14.0981Z"
    fill="#379AFF"/>
  <mask id="mask0_3482_11893" style="mask-type:alpha" maskUnits="userSpaceOnUse" x="0" y="0" width="17" height="16">
    <path
      d="M16.0039 14.0981C16.0039 14.3484 15.9205 14.5152 15.7536 14.6821C15.5868 14.8489 14.3523 16 14.0186 16C11.5994 15.7497 9.26361 14.9155 7.17809 13.5808C5.25942 12.4129 3.67442 10.7445 2.42311 8.82581C1.08838 6.74029 0.254169 4.40451 0.00390625 1.98531C0.00390625 1.73504 1.155 0.500525 1.23843 0.333683C1.40527 0.166842 1.65553 0 1.90579 0H4.40842C4.82552 0 5.1592 0.333683 5.24262 0.750787C5.32604 1.585 5.57631 2.50262 5.90999 3.25341C5.99341 3.58709 5.90999 3.92078 5.74315 4.17104L4.65868 5.17209C4.40842 5.42235 4.325 5.83946 4.49184 6.17314C5.74315 8.4255 7.57841 10.2608 9.83077 11.5121C10.1645 11.6789 10.5816 11.6789 10.8318 11.3452L11.9163 10.2608C12.1665 10.0105 12.5002 9.92707 12.8339 10.0939C13.6681 10.4276 14.5023 10.5944 15.3365 10.7613C15.6702 10.8447 16.0039 11.1784 16.0039 11.5955V14.0981Z"
      fill="white"/>
  </mask>
</svg>

<svg xmlns="http://www.w3.org/2000/svg" width="17" height="16" fill="none" viewBox="0 0 17 16">
  <path fill="#379AFF" d="M16.004 14.098c0 .25-.084.417-.25.584-.167.167-1.402 1.318-1.735 1.318-2.42-.25-4.755-1.085-6.84-2.42-1.92-1.167-3.505-2.835-4.756-4.754C1.088 6.74.254 4.405.003 1.986.004 1.734 1.156.5 1.239.333 1.405.167 1.656 0 1.906 0h2.502c.418 0 .751.334.835.75.083.835.333 1.753.667 2.503.083.334 0 .668-.167.918L4.66 5.172a.887.887 0 0 0-.167 1.001 13.688 13.688 0 0 0 5.339 5.34c.334.166.75.166 1-.168l1.085-1.084c.25-.25.584-.334.918-.167.834.334 1.668.5 2.502.667.334.084.668.417.668.835v2.502Z"/>
</svg>
